X: 39018
T: Swallowtail, The
R: jig
M: 6/8
K: Gdorian
A|:BAG dGG|BAG dzB|AFF cFF|fef cBA|
BAG dGG|BAG dze|fef cBA|BAG GzA:|
|:def g2a|g2a gfd|cde f2g|fde f2z|
def g2a|g2a gfd|fef cBA|BAG GzA:|G3||

